Origami/16x16/apps/dolphin-emu.svg

<svg width="16" height="16" version="1.1" viewBox="0 0 16 16" xmlns="http://www.w3.org/2000/svg">
 <path d="m15.976352 13.38552c-0.06215-0.540595-0.536156-0.998598-0.755856-1.366634-0.07736-0.129528-0.166664-0.202506-0.220992-0.311835-0.0058-3.3414043-1.157003-7.3246237-4.199505-9.0555971 0.243101-0.1075887 1.015267-0.6759091 1.257697-0.7215903 0.181022-0.033835 0.332394-0.1490263 0.404609-0.3077957-0.008814-0.6220679-0.713548-0.6220679-1.687384-0.6220679-0.774921 0-1.7658718 0.081333-3.016848 0.5178909-0.7340712 0.2561952-1.0905989 0.2917138-1.5033925 0.3327973-0.3510128 0.0349464-0.7489017 0.0745811-1.3810226 0.2401092-1.8205709 0.476806-2.6770122 1.2331355-3.1628406 1.7295797-0.3792576 0.3875303-0.531835 0.8820724-0.5108189 1.2025457-0.0902497 0.046517-0.1382192 0.0983973-0.23800819 0.1521544-0.66722219 0.3593261-0.89824965 0.4271121-0.95153498 0.7133225-0.0392748 0.2112093 0.0328656 0.622987 0.20337866 0.8123312 0.27517283 0.2632465 0.4316504 0.2992691 0.86374451 0.2992691 0.3152706 0 0.4010935-0.060763 0.7895177-0.1485038 0.3437838-0.077648 0.7716316-0.1742338 1.0965609-0.2064758 0.41257-0.040999 0.8252896-0.00185 1.4480205 0.1233969 0.1844492 0.037129 0.393492 0.079178 0.6225817 0.1217233 0.2944484 0.054671 0.6014168 0.1168264 0.9125585 0.1168264 0.2647128 0 0.859233 0.011138 1.050315-0.013934 0.1385421 0.266918 0.3686749 0.406206 0.7397345 0.8607313 0.9680053 1.1857808 1.6117616 1.1454002 1.7275732 1.1462357 0.20934 0.00288 0.3813703-0.0240992 0.4778052-0.1996544 0.0964364-0.1756253 0.0800404-0.3853075-0.0444912-0.5447065-0.00252-0.0032941-0.1851148-0.3366255-0.284382-0.8729059-0.02832-0.1527845-0.01568-0.2607998-0.013372-0.3827332 1.2884106 0.3857144 3.1302826 1.7399145 3.3917496 3.019739l0.0085 0.452457c-0.0036-1.6e-4 0.0037 8.2e-5 0 0-0.05925-0.0025-0.03876-0.0031-0.128939-0.0031-0.234381 0-0.488064 0.02423-0.775506 0.07104-0.933501 0.152014-1.876019 0.772277-1.939365 0.842544-0.146368 0.162182-0.181394 0.556123-0.07609 0.744077 0.104484 0.186623 0.31062 0.296792 0.53494 0.278829l0.01036-7e-5c1.427163 0.203068 3.637758 1.119885 4.224376 2.289815 0.09159 0.186628 0.290722 0.304663 0.507887 0.304663 0.01394 0 0.02795-4.04e-4 0.04196-0.0016 0.233114-0.01631 0.430754-0.166429 0.495367-0.376318 0.01647-0.05425 0.160304-0.548534 0.08108-1.236619z" style="fill:#489cf2"/>
 <circle cx="2.5" cy="4.5" r=".5" style="fill:#ffffff"/>
</svg>

<svg xmlns="http://www.w3.org/2000/svg" width="16" height="16" x="0" y="0" version="1.1" viewBox="0 0 16 16" xml:space="preserve">
 <path style="fill:#489cf2" d="M 15.976352,13.38552 C 15.914202,12.844925 15.440196,12.386922 15.220496,12.018886 15.143136,11.889358 15.053832,11.81638 14.999504,11.707051 14.993704,8.3656467 13.842501,4.3824273 10.799999,2.6514539 11.0431,2.5438652 11.815266,1.9755448 12.057696,1.9298636 12.238718,1.8960286 12.39009,1.7808373 12.462305,1.6220679 12.453491,1 11.748757,1 10.774921,1 10,1 9.0090492,1.081333 7.758073,1.5178909 7.0240018,1.7740861 6.6674741,1.8096047 6.2546805,1.8506882 5.9036677,1.8856346 5.5057788,1.9252693 4.8736579,2.0907974 3.053087,2.5676034 2.1966457,3.3239329 1.7108173,3.8203771 1.3315597,4.2079074 1.1789823,4.7024495 1.1999984,5.0229228 1.1097487,5.0694398 1.0617792,5.1213201 0.96199021,5.1750772 0.29476802,5.5344033 0.06374056,5.6021893 0.01045523,5.8883997 -0.02881957,6.099609 0.04332083,6.5113867 0.21383389,6.7007309 0.48900672,6.9639774 0.64548429,7 1.0775784,7 1.392849,7 1.4786719,6.939237 1.8670961,6.8514962 2.2108799,6.7738482 2.6387277,6.6772624 2.963657,6.6450204 c 0.41257,-0.040999 0.8252896,-0.00185 1.4480205,0.1233969 0.1844492,0.037129 0.393492,0.079178 0.6225817,0.1217233 0.2944484,0.054671 0.6014168,0.1168264 0.9125585,0.1168264 0.2647128,0 0.859233,0.011138 1.050315,-0.013934 C 7.1356748,7.259951 7.3658076,7.399239 7.7368672,7.8537643 8.7048725,9.0395451 9.3486288,8.9991645 9.4644404,9 9.6737804,9.00288 9.8458107,8.9759008 9.9422456,8.8003456 10.038682,8.6247203 10.022286,8.4150381 9.8977544,8.2556391 9.8952344,8.252345 9.7126396,7.9190136 9.6133724,7.3827332 9.5850524,7.2299487 9.5976924,7.1219334 9.6000004,7 10.888411,7.3857144 12.730283,8.7399145 12.99175,10.019739 l 0.0085,0.452457 c -0.0036,-1.6e-4 0.0037,8.2e-5 0,0 -0.05925,-0.0025 -0.03876,-0.0031 -0.128939,-0.0031 -0.234381,0 -0.488064,0.02423 -0.775506,0.07104 -0.933501,0.152014 -1.876019,0.772277 -1.939365,0.842544 -0.146368,0.162182 -0.181394,0.556123 -0.07609,0.744077 0.104484,0.186623 0.31062,0.296792 0.53494,0.278829 l 0.01036,-7e-5 c 1.427163,0.203068 3.637758,1.119885 4.224376,2.289815 0.09159,0.186628 0.290722,0.304663 0.507887,0.304663 0.01394,0 0.02795,-4.04e-4 0.04196,-0.0016 0.233114,-0.01631 0.430754,-0.166429 0.495367,-0.376318 0.01647,-0.05425 0.160304,-0.548534 0.08108,-1.236619 z"/>
 <circle style="fill:#ffffff" cx="2.5" cy="4.5" r=".5"/>
</svg>
